X: 2
T: Ramnee Ceilidh
R: reel
M: 4/4
L: 1/8
K: Dmaj
d|dBBd A2BA|feef e2de|faaf e2fe|d2de dBA2|dBBd A2BA|feef e2de|faaf eafe|dBAB d3:|:e|f2fA Bde2-|edBd edBd|effA Bde2-|edfe d3e|f2fA Bde2-|edBd edBd|faaf eafe|dBAB d3:|


Tune 2639	Setting 15896

